X: 12585
T: Farewell To The Creeks
R: jig
M: 6/8
K: Amixolydian
e|:ecB ABA|{c}def e2e|ecB ABA|edc B2e|
ecB ABA|{c}def e2A|c2e edc|1 BGB A2e:|2 BGB A3||
|:{B}cBA def|e2c cBA|{c}def e2A|edc B2e|
{B}cBA def|e2c cBA|{B}c2e edc|BGB A3:|
|:a2e {f}g2a|e2c cBA|def e2A|edc B2e|
a2e {f}g2a|e2c cBA|c2e edc|BGB A2e:|

